Icons/update_bookmark.svg

<?xml version="1.0" encoding="UTF-8" standalone="no"?>
<svg
   viewBox="0 0 50 50"
   width="50px"
   height="50px"
   version="1.1"
   id="svg1"
   xmlns="http://www.w3.org/2000/svg"
   xmlns:svg="http://www.w3.org/2000/svg">
  <defs
     id="defs1" />
  <path
     d="M 25 5 C 13.964844 5 5 13.964844 5 25 C 4.996094 25.359375 5.183594 25.695313 5.496094 25.878906 C 5.808594 26.058594 6.191406 26.058594 6.503906 25.878906 C 6.816406 25.695313 7.003906 25.359375 7 25 C 7 15.046875 15.046875 7 25 7 C 31.246094 7 36.726563 10.179688 39.957031 15 L 33 15 C 32.640625 14.996094 32.304688 15.183594 32.121094 15.496094 C 31.941406 15.808594 31.941406 16.191406 32.121094 16.503906 C 32.304688 16.816406 32.640625 17.003906 33 17 L 43 17 L 43 7 C 43.003906 6.730469 42.898438 6.46875 42.707031 6.277344 C 42.515625 6.085938 42.253906 5.980469 41.984375 5.984375 C 41.433594 5.996094 40.992188 6.449219 41 7 L 41 13.011719 C 37.347656 8.148438 31.539063 5 25 5 Z M 43.984375 23.984375 C 43.433594 23.996094 42.992188 24.449219 43 25 C 43 34.953125 34.953125 43 25 43 C 18.753906 43 13.269531 39.820313 10.042969 35 L 17 35 C 17.359375 35.007813 17.695313 34.816406 17.878906 34.507813 C 18.058594 34.195313 18.058594 33.808594 17.878906 33.496094 C 17.695313 33.1875 17.359375 32.996094 17 33 L 8.445313 33 C 8.316406 32.976563 8.1875 32.976563 8.058594 33 L 7 33 L 7 43 C 6.996094 43.359375 7.183594 43.695313 7.496094 43.878906 C 7.808594 44.058594 8.191406 44.058594 8.503906 43.878906 C 8.816406 43.695313 9.003906 43.359375 9 43 L 9 36.984375 C 12.648438 41.847656 18.460938 45 25 45 C 36.035156 45 45 36.035156 45 25 C 45.003906 24.730469 44.898438 24.46875 44.707031 24.277344 C 44.515625 24.085938 44.253906 23.980469 43.984375 23.984375 Z"
     id="path1"
     style="fill:#353e48;fill-opacity:1" />
  <path
     d="m 21.526547,15.590448 c -1.61424,0 -2.937498,1.323259 -2.937498,2.937499 v 13.557686 a 0.67795208,0.67795208 0 0 0 1.0742,0.549898 l 5.25272,-3.782206 5.252721,3.782206 a 0.67795208,0.67795208 0 0 0 1.074199,-0.549898 V 18.527947 c 0,-1.61424 -1.323258,-2.937499 -2.937499,-2.937499 z m 0,1.355769 h 6.778843 c 0.881278,0 1.581731,0.700453 1.581731,1.58173 v 12.234576 l -4.574837,-3.294095 a 0.67795208,0.67795208 0 0 0 -0.79263,0 l -4.574836,3.294095 V 18.527947 c 0,-0.881277 0.700452,-1.58173 1.581729,-1.58173 z"
     id="path1-9"
     style="stroke-width:0.45354331;stroke-dasharray:none;fill:#1872f0;fill-opacity:1" />
</svg>

<svg width="50px" height="50px" version="1.1" viewBox="0 0 50 50" xmlns="http://www.w3.org/2000/svg">
 <path d="m25 5c-11.035 0-20 8.9648-20 20-0.003906 0.35938 0.18359 0.69531 0.49609 0.87891 0.3125 0.17969 0.69531 0.17969 1.0078 0 0.3125-0.18359 0.5-0.51953 0.49609-0.87891 0-9.9531 8.0469-18 18-18 6.2461 0 11.727 3.1797 14.957 8h-6.957c-0.35938-0.003906-0.69531 0.18359-0.87891 0.49609-0.17969 0.3125-0.17969 0.69531 0 1.0078 0.18359 0.3125 0.51953 0.5 0.87891 0.49609h10v-10c0.003906-0.26953-0.10156-0.53125-0.29297-0.72266-0.19141-0.19141-0.45312-0.29688-0.72266-0.29297-0.55078 0.011719-0.99219 0.46484-0.98438 1.0156v6.0117c-3.6523-4.8633-9.4609-8.0117-16-8.0117zm18.984 18.984c-0.55078 0.011719-0.99219 0.46484-0.98438 1.0156 0 9.9531-8.0469 18-18 18-6.2461 0-11.73-3.1797-14.957-8h6.957c0.35938 0.007813 0.69531-0.18359 0.87891-0.49219 0.17969-0.3125 0.17969-0.69922 0-1.0117-0.18359-0.30859-0.51953-0.5-0.87891-0.49609h-8.5547c-0.12891-0.023437-0.25781-0.023437-0.38672 0h-1.0586v10c-0.003906 0.35938 0.18359 0.69531 0.49609 0.87891 0.3125 0.17969 0.69531 0.17969 1.0078 0 0.3125-0.18359 0.5-0.51953 0.49609-0.87891v-6.0156c3.6484 4.8633 9.4609 8.0156 16 8.0156 11.035 0 20-8.9648 20-20 0.003906-0.26953-0.10156-0.53125-0.29297-0.72266-0.19141-0.19141-0.45312-0.29688-0.72266-0.29297z" fill="currentColor"/>
 <path d="m21.527 15.59c-1.6142 0-2.9375 1.3233-2.9375 2.9375v13.558a0.67795 0.67795 0 0 0 1.0742 0.5499l5.2527-3.7822 5.2527 3.7822a0.67795 0.67795 0 0 0 1.0742-0.5499v-13.558c0-1.6142-1.3233-2.9375-2.9375-2.9375zm0 1.3558h6.7788c0.88128 0 1.5817 0.70045 1.5817 1.5817v12.235l-4.5748-3.2941a0.67795 0.67795 0 0 0-0.79263 0l-4.5748 3.2941v-12.235c0-0.88128 0.70045-1.5817 1.5817-1.5817z" fill="#1872f0" stroke-width=".45354"/>
</svg>
